Catalina-light/apps/scalable/alchemy.svg

<?xml version="1.0" encoding="UTF-8" standalone="no"?>
<svg
   xmlns:dc="http://purl.org/dc/elements/1.1/"
   xmlns:cc="http://creativecommons.org/ns#"
   xmlns:rdf="http://www.w3.org/1999/02/22-rdf-syntax-ns#"
   xmlns:svg="http://www.w3.org/2000/svg"
   xmlns="http://www.w3.org/2000/svg"
   xmlns:xlink="http://www.w3.org/1999/xlink"
   xmlns:sodipodi="http://sodipodi.sourceforge.net/DTD/sodipodi-0.dtd"
   xmlns:inkscape="http://www.inkscape.org/namespaces/inkscape"
   height="136.53333"
   viewBox="0 0 136.53333 136.53333"
   width="136.53333"
   version="1.1"
   id="svg59"
   sodipodi:docname="alchemy.svg"
   inkscape:version="0.92.2 2405546, 2018-03-11">
  <metadata
     id="metadata65">
    <rdf:RDF>
      <cc:Work
         rdf:about="">
        <dc:format>image/svg+xml</dc:format>
        <dc:type
           rdf:resource="http://purl.org/dc/dcmitype/StillImage" />
        <dc:title></dc:title>
      </cc:Work>
    </rdf:RDF>
  </metadata>
  <defs
     id="defs63">
    <linearGradient
       inkscape:collect="always"
       id="linearGradient865">
      <stop
         style="stop-color:#03a0ff;stop-opacity:1"
         offset="0"
         id="stop861" />
      <stop
         id="stop1122"
         offset="0.49999997"
         style="stop-color:#00ce98;stop-opacity:1" />
      <stop
         style="stop-color:#c48fff;stop-opacity:1"
         offset="1"
         id="stop863" />
    </linearGradient>
    <linearGradient
       inkscape:collect="always"
       id="linearGradient857">
      <stop
         style="stop-color:#f1f1f1;stop-opacity:1"
         offset="0"
         id="stop853" />
      <stop
         style="stop-color:#d9dad9;stop-opacity:1"
         offset="1"
         id="stop855" />
    </linearGradient>
    <linearGradient
       inkscape:collect="always"
       xlink:href="#linearGradient857"
       id="linearGradient859"
       x1="73.908607"
       y1="8.693965"
       x2="79.908531"
       y2="137.96426"
       gradientUnits="userSpaceOnUse" />
    <linearGradient
       inkscape:collect="always"
       xlink:href="#linearGradient865"
       id="linearGradient867"
       x1="109.02161"
       y1="137.14609"
       x2="25.159544"
       y2="-3.4912465"
       gradientUnits="userSpaceOnUse" />
  </defs>
  <sodipodi:namedview
     pagecolor="#ffffff"
     bordercolor="#666666"
     borderopacity="1"
     objecttolerance="10"
     gridtolerance="10"
     guidetolerance="10"
     inkscape:pageopacity="0"
     inkscape:pageshadow="2"
     inkscape:window-width="1920"
     inkscape:window-height="1031"
     id="namedview61"
     showgrid="false"
     inkscape:zoom="3.4570315"
     inkscape:cx="37.414527"
     inkscape:cy="38.921417"
     inkscape:window-x="0"
     inkscape:window-y="26"
     inkscape:window-maximized="1"
     inkscape:current-layer="svg59"
     showguides="false" />
  <linearGradient
     id="a">
    <stop
       offset="0"
       stop-color="#9760ef"
       id="stop2" />
    <stop
       offset="1"
       stop-color="#c054f2"
       stop-opacity="0"
       id="stop4" />
  </linearGradient>
  <linearGradient
     id="b">
    <stop
       offset="0"
       stop-color="#17c7e7"
       id="stop7" />
    <stop
       offset="1"
       stop-color="#c054f2"
       stop-opacity="0"
       id="stop9" />
  </linearGradient>
  <linearGradient
     id="c"
     gradientUnits="userSpaceOnUse"
     x1="62.04421"
     x2="66.81698"
     y1="5.831234"
     y2="47.148641">
    <stop
       offset="0"
       stop-color="#e83c2b"
       id="stop12" />
    <stop
       offset="1"
       stop-color="#c054f2"
       stop-opacity=".792157"
       id="stop14" />
  </linearGradient>
  <linearGradient
     id="d"
     gradientUnits="userSpaceOnUse"
     x1="88.22553"
     x2="38.18116"
     xlink:href="#b"
     y1="119.556361"
     y2="35.285226"
     gradientTransform="translate(-227.27608,-22.607353)" />
  <linearGradient
     id="e"
     gradientUnits="userSpaceOnUse"
     x1="61.6262"
     x2="95.3216"
     y1="48.640058"
     y2="103.021981">
    <stop
       offset="0"
       stop-color="#f66456"
       id="stop18" />
    <stop
       offset="1"
       stop-color="#d9493e"
       stop-opacity="0"
       id="stop20" />
  </linearGradient>
  <linearGradient
     id="f"
     gradientUnits="userSpaceOnUse"
     x1="32.31499"
     x2="61.76681"
     xlink:href="#a"
     y1="92.483823"
     y2="57.318029" />
  <linearGradient
     id="g"
     gradientUnits="userSpaceOnUse"
     x1="96.53194"
     x2="61.76681"
     xlink:href="#b"
     y1="97.690601"
     y2="59.053621" />
  <linearGradient
     id="h"
     gradientUnits="userSpaceOnUse"
     x1="139.34325"
     x2="61.76681"
     xlink:href="#a"
     y1="-7.023515"
     y2="59.053621" />
  <filter
     id="i"
     color-interpolation-filters="sRGB"
     height="1.108812"
     width="1.139866"
     x="-.069933"
     y="-.054406">
    <feGaussianBlur
       stdDeviation="1.9764485"
       id="feGaussianBlur26" />
  </filter>
  <path
     style="color:#000000;font-style:normal;font-variant:normal;font-weight:normal;font-stretch:normal;font-size:medium;line-height:normal;font-family:sans-serif;font-variant-ligatures:normal;font-variant-position:normal;font-variant-caps:normal;font-variant-numeric:normal;font-variant-alternates:normal;font-feature-settings:normal;text-indent:0;text-align:start;text-decoration:none;text-decoration-line:none;text-decoration-style:solid;text-decoration-color:#000000;letter-spacing:normal;word-spacing:normal;text-transform:none;writing-mode:lr-tb;direction:ltr;text-orientation:mixed;dominant-baseline:auto;baseline-shift:baseline;text-anchor:start;white-space:normal;shape-padding:0;clip-rule:nonzero;display:inline;overflow:visible;visibility:visible;opacity:1;isolation:auto;mix-blend-mode:normal;color-interpolation:sRGB;color-interpolation-filters:linearRGB;solid-color:#000000;solid-opacity:1;vector-effect:none;fill:url(#linearGradient859);fill-opacity:1;fill-rule:nonzero;stroke:none;stroke-width:6;stroke-linecap:butt;stroke-linejoin:miter;stroke-miterlimit:4;stroke-dasharray:none;stroke-dashoffset:0;stroke-opacity:1;color-rendering:auto;image-rendering:auto;shape-rendering:auto;text-rendering:auto;enable-background:accumulate"
     d="m 68.113281,2.2167969 c -36.979431,0 -67.0214841,30.0420531 -67.0214841,67.0214841 0,36.979429 30.0420531,67.021489 67.0214841,67.021489 36.979429,0 67.021489,-30.04206 67.021489,-67.021489 0,-36.979431 -30.04206,-67.0214841 -67.021489,-67.0214841 z"
     id="circle29"
     inkscape:connector-curvature="0"
     sodipodi:nodetypes="sssss" />
  <path
     style="opacity:1;fill:url(#linearGradient867);fill-opacity:1;stroke:none;stroke-width:3.79999995;stroke-linecap:round;stroke-linejoin:round;stroke-miterlimit:4;stroke-dasharray:none;stroke-dashoffset:0;stroke-opacity:0.05323193;paint-order:fill markers stroke"
     d="M 68.113281,8.78125 C 34.723662,8.7809529 7.6559529,35.848662 7.65625,69.238281 7.655954,102.6279 34.723662,129.69561 68.113281,129.69531 101.5029,129.69561 128.57061,102.6279 128.57031,69.238281 128.57061,35.848662 101.5029,8.780954 68.113281,8.78125 Z"
     id="path839"
     inkscape:connector-curvature="0"
     sodipodi:nodetypes="ccccc" />
  <path
     style="fill:#ffffff;fill-rule:evenodd;stroke-width:2.97300649"
     d="M 53.029297 36.515625 L 51.542969 40.974609 L 53.029297 41.060547 L 53.029297 67.029297 L 35.505859 102.07812 C 34.517665 104.05504 35.953939 106.38079 38.164062 106.38086 L 96.138672 106.38086 C 98.348797 106.38079 99.785069 104.05504 98.796875 102.07812 L 81.273438 67.029297 L 81.273438 41.060547 L 82.759766 40.974609 L 81.273438 36.515625 L 75.328125 36.515625 L 75.328125 67.732422 C 75.328015 68.193993 75.434301 68.649606 75.640625 69.0625 L 91.330078 100.43555 L 42.972656 100.43555 L 58.662109 69.0625 C 58.868424 68.649605 58.976672 68.193993 58.976562 67.732422 L 58.976562 36.515625 L 53.029297 36.515625 z M 64.265625 56.587891 A 3.5397835 3.5397835 0 0 0 60.724609 60.126953 A 3.5397835 3.5397835 0 0 0 64.265625 63.666016 A 3.5397835 3.5397835 0 0 0 67.804688 60.126953 A 3.5397835 3.5397835 0 0 0 64.265625 56.587891 z M 70.505859 60.398438 A 2.0288033 2.0288033 0 0 0 68.476562 62.425781 A 2.0288033 2.0288033 0 0 0 70.505859 64.455078 A 2.0288033 2.0288033 0 0 0 72.535156 62.425781 A 2.0288033 2.0288033 0 0 0 70.505859 60.398438 z M 68.994141 65.785156 A 2.7514462 2.7514462 0 0 0 66.244141 68.535156 A 2.7514462 2.7514462 0 0 0 68.994141 71.287109 A 2.7514462 2.7514462 0 0 0 71.746094 68.535156 A 2.7514462 2.7514462 0 0 0 68.994141 65.785156 z M 56.769531 76.650391 L 45.722656 98.736328 L 88.580078 98.736328 L 77.535156 76.650391 L 56.769531 76.650391 z "
     id="path1060-3" />
</svg>

<svg width="136.53" height="136.53" version="1.1" viewBox="0 0 136.53 136.53" xmlns="http://www.w3.org/2000/svg">
<defs>
<linearGradient id="linearGradient859" x1="73.909" x2="79.909" y1="8.694" y2="137.96" gradientUnits="userSpaceOnUse"/>
<linearGradient id="linearGradient867" x1="109.02" x2="25.16" y1="137.15" y2="-3.4912" gradientUnits="userSpaceOnUse"/>
</defs>
<filter x="-.069933" y="-.054406" width="1.1399" height="1.1088" color-interpolation-filters="sRGB">
<feGaussianBlur stdDeviation="1.9764485"/>
</filter>
<path d="m68.113 2.2168c-36.979 0-67.021 30.042-67.021 67.021 0 36.979 30.042 67.021 67.021 67.021 36.979 0 67.021-30.042 67.021-67.021 0-36.979-30.042-67.021-67.021-67.021z" color="#000000" color-rendering="auto" dominant-baseline="auto" fill="url(#linearGradient859)" image-rendering="auto" shape-rendering="auto" solid-color="#000000" style="font-feature-settings:normal;font-variant-alternates:normal;font-variant-caps:normal;font-variant-ligatures:normal;font-variant-numeric:normal;font-variant-position:normal;isolation:auto;mix-blend-mode:normal;shape-padding:0;text-decoration-color:#000000;text-decoration-line:none;text-decoration-style:solid;text-indent:0;text-orientation:mixed;text-transform:none;white-space:normal"/>
<path d="m68.113 8.7812c-33.39-2.971e-4 -60.457 27.067-60.457 60.457-2.96e-4 33.39 27.067 60.457 60.457 60.457 33.39 3e-4 60.457-27.067 60.457-60.457 3e-4 -33.39-27.067-60.457-60.457-60.457z" fill="url(#linearGradient867)" style="paint-order:fill markers stroke"/>
<path d="m53.029 36.516-1.4863 4.459 1.4863 0.085938v25.969l-17.523 35.049c-0.98819 1.9769 0.44808 4.3027 2.6582 4.3027h57.975c2.2101-7e-5 3.6464-2.3258 2.6582-4.3027l-17.523-35.049v-25.969l1.4863-0.085938-1.4863-4.459h-5.9453v31.217c-1.1e-4 0.46157 0.10618 0.91718 0.3125 1.3301l15.689 31.373h-48.357l15.689-31.373c0.20632-0.4129 0.31456-0.86851 0.31445-1.3301v-31.217h-5.9473zm11.236 20.072a3.5398 3.5398 0 0 0-3.541 3.5391 3.5398 3.5398 0 0 0 3.541 3.5391 3.5398 3.5398 0 0 0 3.5391-3.5391 3.5398 3.5398 0 0 0-3.5391-3.5391zm6.2402 3.8105a2.0288 2.0288 0 0 0-2.0293 2.0273 2.0288 2.0288 0 0 0 2.0293 2.0293 2.0288 2.0288 0 0 0 2.0293-2.0293 2.0288 2.0288 0 0 0-2.0293-2.0273zm-1.5117 5.3867a2.7514 2.7514 0 0 0-2.75 2.75 2.7514 2.7514 0 0 0 2.75 2.752 2.7514 2.7514 0 0 0 2.752-2.752 2.7514 2.7514 0 0 0-2.752-2.75zm-12.225 10.865-11.047 22.086h42.857l-11.045-22.086h-20.766z" fill="#fff" fill-rule="evenodd" stroke-width="2.973"/>
</svg>
